X:1
T:Title
%%score { ( 1 3 4 ) | ( 2 5 ) }
L:1/8
Q:1/4=90
M:6/8
K:Ab
V:1 treble nm="Grand Piano"
V:3 treble 
V:4 treble 
V:2 bass 
V:5 bass 
V:1
 c_c=c A2 [EG] | [DF]2 [FA] [DF] [CE]2 | AGA cBc | [Gd]6 | c_c=c AA[EG] | [DF]2 [FA] [DF] [CE]2 | %6
w: T.~Martin~Towne * * * *||||||
 [CE][EA][Ac] [Bd][Ac][DGB] | [CA]6 | [B,GB][B,GB][C_G=A] [B,=GB]2 [_Ac] | [GB]2 [FA] G3 | %10
w: ||||
 GBe =d2 d | [Ge]6 | EFG A2 [CA] |[M:15/16] [E_Gc][EGB]/-[EGB]/[EGA][DFd]3/2- [DFd]3 | %14
w: ||||
[M:31/32] z/ e/4-e/4-e/4-e/4-e/4-e/4-e/-<e/ z/4 z/4 z/4 z/4 z/4 z/4 z/4 z/4 z/4 z/4 z/4 z/4 z/ [DB]/4-[DB]/-<[DB]/- | %15
w: |
[M:3/4] [DB]3/4 z/4 z z2 z2 |] %16
w: |
V:2
 [A,E][A,=D][A,E] [A,C]2 [C,A,] | [D,A,]2 [D,A,] [A,,A,] [A,,A,]2 | %2
 [E,CE][E,B,E][E,CE] [E,A,E][E,G,E][E,A,E] | [E,B,]6 | [A,E][A,=D][A,E] [A,C][A,C][C,A,] | %5
 [D,A,]2 [D,A,] [A,,A,] [A,,A,]2 | [E,A,][E,C][E,E] [E,E][E,E]E, | A,,6 | E,E,E, E,2 [E,E] | %9
 [E,E]2 [E,B,] [E,B,E]3 | [B,E][B,EG][B,G] [B,F]2 [B,A] | [E,B,]6 | E,F,G, A,2 A, | %13
[M:15/16] A,,B,,/-B,,/C,D,3/2- D,3 | %14
[M:31/32] z/ C/4-C/4-C/4-C/4-C/4-C/4-C/-<C/ z/4 z/4 z/4 z/4 z/4 z/4 z/4 z/4 z/4 z/4 z/4 z/4 z/ E,/4-E,/-<E,/- | %15
[M:3/4] E,3/4 z/4 z z2 z2 |] %16
V:3
 x6 | x6 | x6 | x6 | x6 | x6 | x6 | x6 | x6 | x6 | x6 | x6 | x6 |[M:15/16] x15/2 | %14
[M:31/32] [Ec]/E/4-E/4-E/4-E/4-E/-<E/[Ec]/4-[Ec]/4-[Ec]/-<[Ec]/ z/4 z/4 z/4 z/4 z/4 z/4 z/4 z/4 z/ E/4-E/-<E/ | %15
[M:3/4] [CEA]4- [CEA]-[CEA]/4 z/4 z/ |] %16
V:4
 x6 | x6 | x6 | x6 | x6 | x6 | x6 | x6 | x6 | x6 | x6 | x6 | x6 |[M:15/16] x15/2 | %14
[M:31/32] z/4 z/4 z/4 z/4 z/4 z/4 z/4 z/4 z/ A/-<A/[CA]/4-[CA]/4-[CA]/4-[CA]/4-[CA]/4-[CA]/4-[CA]/4-[CA]/4-[CA]/4-[CA]/4-[CA]/-<[CA]/ z/4 z/ | %15
[M:3/4] x6 |] %16
V:5
 x6 | x6 | x6 | x6 | x6 | x6 | x6 | x6 | x6 | x6 | x6 | x6 | x6 |[M:15/16] x15/2 | %14
[M:31/32] [E,A,]/E,/4-E,/4-E,/4-E,/4-E,/-<E,/E,/-<E,/E,/4-E,/4-E,/4-E,/4-E,/4-E,/4-E,/4-E,/4-E,/-<E,/ z/4 z/4 z/4 z/ | %15
[M:3/4] A,,4- A,,-A,,/4 z/4 z/ |] %16

